X:500
T:White Bluff
C:Aubrey Haynie
N:From "Doin My Time" Transcribed and Transcribed by Mike Stangeland
R:bluegrass
L:1/8
Q:1/4=175
M:4/4
K:D
z8 | z2 F2 B2 d2 | "Bm"ef fa f2 fa | fd ed B2 dB | {d}"E"e2 ee e2 e=f | "Bm"ed BA Bd ef | 
"E"de ^ge g2 e=f | "Bm"ed BA Bd ef | "G"ge df "A"ec BA | "Bm"B2 [B2F2] [BF]A Bd | 
ef fa f2 (3fgf | de dc Bd Bc | "E"de [^g2e2] [g2e2] e=f | "Bm"ed BA Bd ef | "E"de ^ge g2 e=f | 
"Bm"ed BA Bd ef | "G"ge df "A"ec BA | "Bm"B2 F2 FA Bd | {d}"E"e2 ee e2 e=f | "Bm"ed BA Bd ef | 
"E"de [^g2e2] [g2e2] d2 | "Bm"[ae][bf] bf fb [bf]A | ^G2 [^g2e2] [g2e2] e=f | 
"Bm"ed BA Bd ef | "G"ge df "A"ec BA | "Bm"[B2F2] [B2F2] BF Bd | {d}e2 ee e2 e=f | 
"Bm"ed BA Bd ef | "E"de [^g2e2] [g2e2] d2 | "Bm"[ae][bf] bf fb [bf]A | "E"^G2 [^g2e2] [g2e2] e=f | 
"Bm"ed BA B2 (3ef^g | "G"af df "A"ec BA | "Bm"[B8F8] | 


